src/general/components/img/play.svg

<svg height="50" viewBox="0 0 50 50" width="50" xmlns="http://www.w3.org/2000/svg"><path d="m25 0c-13.7853659 0-25 11.2146531-25 25.0000122 0 13.7852981 11.2146341 24.9999878 25 24.9999878s25-11.2146897 25-24.9999878c0-13.7853591-11.2146341-25.0000122-25-25.0000122zm0 1.89393939c12.7843853 0 23.1060606 10.32164301 23.1060606 23.10607381 0 12.784378-10.3216753 23.1060474-23.1060606 23.1060474s-23.10606061-10.3216694-23.10606061-23.1060474c0-12.7844308 10.32167531-23.10607381 23.10606061-23.10607381zm-6.4786585 11.59812411c-1.4096342.0318903-2.6316464 1.1706021-2.667683 2.7980945v17.6891378c.0481708 2.1698918 2.2023781 3.4861039 4.0968293 2.4531025l15.2439024-8.8733009c.8296342-.4846717 1.3909757-1.374228 1.3909757-2.4147727 0-1.0405448-.5612805-1.9301624-1.3909757-2.4147728l-15.2439024-8.873356c-.4736585-.2582504-.9592683-.3747727-1.4291463-.3641324z" fill="#fff"/></svg>

<?xml version="1.0" encoding="UTF-8"?>
<svg width="50px" height="50px" viewBox="0 0 50 50" version="1.1" xmlns="http://www.w3.org/2000/svg" xmlns:xlink="http://www.w3.org/1999/xlink">
    <!-- Generator: Sketch 48.1 (47250) - http://www.bohemiancoding.com/sketch -->
    <title>Play</title>
    <desc>Created with Sketch.</desc>
    <defs></defs>
    <g id="Icons" stroke="none" stroke-width="1" fill="none" fill-rule="evenodd">
        <g id="Play" fill="#FFFFFF" fill-rule="nonzero">
            <path d="M25,0 C11.2146341,0 0,11.2146531 0,25.0000122 C0,38.7853103 11.2146341,50 25,50 C38.7853659,50 50,38.7853103 50,25.0000122 C50,11.2146531 38.7853659,0 25,0 Z M25,1.89393939 C37.7843853,1.89393939 48.1060606,12.2155824 48.1060606,25.0000132 C48.1060606,37.7843912 37.7843853,48.1060606 25,48.1060606 C12.2156147,48.1060606 1.89393939,37.7843912 1.89393939,25.0000132 C1.89393939,12.2155824 12.2156147,1.89393939 25,1.89393939 Z M18.5213415,13.4920635 C17.1117073,13.5239538 15.8896951,14.6626656 15.8536585,16.290158 L15.8536585,33.9792958 C15.9018293,36.1491876 18.0560366,37.4653997 19.9504878,36.4323983 L35.1943902,27.5590974 C36.0240244,27.0744257 36.5853659,26.1848694 36.5853659,25.1443247 C36.5853659,24.1037799 36.0240854,23.2141623 35.1943902,22.7295519 L19.9504878,13.8561959 C19.4768293,13.5979455 18.9912195,13.4814232 18.5213415,13.4920635 Z" id="Shape"></path>
        </g>
    </g>
</svg>
